X:22
T:Out on the Ocean
M:6/8
R:jig
C:Traditional
K:G
D2B BAG | BdB ABA | GED G2A | B2 B AGE |
D2B BAG | BdB ABA | GED G2A |[1 BGF GEE :|[2 BGF GBd |]
e3 edB | e3 edB | d3 dBA | d3 dBA |
G2A B2d | ege dBA | GED G2A | BGF GBd |
e3 edB | efe edB | d3 def | gfe dBA |
G2A B2d | ege dBA | GED G2A | BGF GE2 |]

